<?xml version="1.0" encoding="UTF-8"?>
<map version="1.10" tiledversion="1.11.2" orientation="orthogonal" renderorder="right-down" width="32" height="32" tilewidth="8" tileheight="8" infinite="0" nextlayerid="3" nextobjectid="1">
 <editorsettings>
  <export target="../instructionsScreen.c" format="gba"/>
 </editorsettings>
 <tileset firstgid="1" source="Tileset.tsx"/>
 <tileset firstgid="1025" source="UItileset.tsx"/>
 <layer id="1" name="Clouds" width="32" height="32">
  <data encoding="csv">
1,1,1,1,1,1,1,1,1,1,1,1,1,1,1,1,1,1,1,1,1,1,1,1,1,1,1,1,1,1,1,1,
1,1,1,1,1,1,1,1,1,1,1,1,1,1,1,1,1,1,1,48,1,1,1,1,1,1,1,1,1,1,1,1,
1,1,1,56,58,59,1,1,1,1,1,1,1,1,1,1,1,1,1,1,56,58,57,57,59,1,1,1,1,1,1,1,
48,49,50,149,153,150,51,49,51,1,1,1,1,1,1,1,56,58,58,58,85,121,121,121,86,59,1,1,1,1,1,1,
1,1,1,1,1,1,1,1,1,1,1,1,1,1,1,49,149,153,154,154,153,154,154,153,153,150,50,50,51,1,48,49,
1,1,1,1,1,1,1,1,1,1,1,1,1,1,1,1,1,1,1,1,1,1,1,1,1,1,1,1,1,1,1,1,
1,1,1,1,1,1,1,1,1,1,1,1,1,1,1,1,1,1,1,1,49,50,50,50,50,51,48,1,1,1,1,1,
1,1,1,1,48,56,59,1,1,1,1,1,1,1,48,1,1,1,1,1,1,1,1,1,1,1,1,1,1,1,1,1,
1,1,1,56,57,85,86,58,58,59,49,51,1,1,1,56,59,1,1,1,1,1,1,1,1,1,1,1,1,1,1,1,
1,49,50,149,153,154,154,153,117,86,57,54,51,1,1,152,122,59,1,1,1,1,1,1,1,1,1,1,1,56,57,57,
1,1,1,1,1,1,1,1,152,153,153,155,1,1,1,56,85,91,1,1,1,1,1,1,1,1,49,51,49,149,117,121,
1,1,1,1,1,1,1,1,1,1,1,1,1,1,56,85,121,86,59,1,1,1,1,1,1,1,1,1,1,1,152,154,
1,1,1,1,1,1,1,1,1,1,1,1,1,1,88,121,121,121,123,1,1,1,49,50,51,1,1,1,1,1,1,1,
1,1,1,1,1,1,1,1,1,1,1,1,1,1,88,121,121,121,91,1,1,1,1,1,1,1,1,1,1,1,1,1,
1,1,1,1,1,1,1,1,1,1,1,1,48,56,85,121,121,121,123,1,56,59,1,1,1,1,1,56,59,1,1,56,
1,1,48,1,1,1,1,1,1,1,1,1,1,120,121,121,121,121,86,59,152,155,1,1,1,1,1,152,155,1,56,85,
57,57,57,59,1,1,56,59,1,1,1,1,56,85,121,121,121,121,121,86,58,59,48,1,1,1,1,1,56,58,85,121,
121,121,121,86,58,59,152,155,48,1,56,57,85,121,121,121,121,121,121,121,121,86,58,58,57,58,58,58,85,121,121,121,
121,121,121,121,121,86,57,58,58,57,85,121,121,121,121,121,121,121,121,121,121,121,121,121,121,121,121,121,121,121,121,121,
121,121,121,121,121,121,121,121,121,121,121,121,121,121,121,121,121,121,121,121,121,121,121,121,121,121,121,121,121,121,121,121,
121,121,121,121,121,121,121,121,121,121,121,121,121,121,121,121,121,121,121,121,121,121,121,121,121,121,121,121,121,121,121,121,
121,121,121,121,121,121,121,121,121,121,121,121,121,121,121,121,121,121,121,121,121,121,121,121,121,121,121,121,121,121,121,121,
121,121,121,121,121,121,121,121,121,121,121,121,121,121,121,121,121,121,121,121,121,121,121,121,121,121,121,121,121,121,121,121,
121,121,121,121,121,121,121,121,121,121,121,121,121,121,121,121,121,121,121,121,121,121,121,121,121,121,121,121,121,121,121,121,
121,121,121,121,121,121,121,121,121,121,121,121,121,121,121,121,121,121,121,121,121,121,121,121,121,121,121,121,121,121,121,121,
121,121,121,121,121,121,121,121,121,121,121,121,121,121,121,121,121,121,121,121,121,121,121,121,121,121,121,121,121,121,121,121,
121,121,121,121,121,121,121,121,121,121,121,121,121,121,121,121,121,121,121,121,121,121,121,121,121,121,121,121,121,121,121,121,
121,121,121,121,121,121,121,121,121,121,121,121,121,121,121,121,121,121,121,121,121,121,121,121,121,121,121,121,121,121,121,121,
121,121,121,121,121,121,121,121,121,121,121,121,121,121,121,121,121,121,121,121,121,121,121,121,121,121,121,121,121,121,121,121,
121,121,121,121,121,121,121,121,121,121,121,121,121,121,121,121,121,121,121,121,121,121,121,121,121,121,121,121,121,121,121,121,
121,121,121,121,121,121,121,121,121,121,121,121,121,121,121,121,121,121,121,121,121,121,121,121,121,121,121,121,121,121,121,121,
121,121,121,121,121,121,121,121,121,121,121,121,121,121,121,121,121,121,121,121,121,121,121,121,121,121,121,121,121,121,121,121
</data>
 </layer>
 <layer id="2" name="HUD" width="32" height="32">
  <data encoding="csv">
0,0,0,0,0,0,0,0,0,0,0,0,0,0,0,0,0,0,0,0,0,0,0,0,0,0,0,0,0,0,0,0,
0,0,0,0,0,0,0,0,0,1098,1103,1108,1109,1107,1110,1092,1109,1098,1104,1103,1108,0,0,0,0,0,0,0,0,0,0,0,
0,0,0,0,0,0,0,0,0,0,0,0,0,0,0,0,0,0,0,0,0,0,0,0,0,0,0,0,0,0,0,0,
0,1114,1104,1110,0,1090,1107,1094,0,1090,0,1107,1094,1093,0,1093,1090,1102,1108,1094,1101,1071,0,1097,1110,1103,1109,1094,1107,0,0,0,
0,1104,1095,0,1102,1104,1103,1108,1109,1094,1107,1108,1071,0,0,0,0,0,0,0,0,0,0,0,0,0,0,0,0,0,0,0,
0,0,0,0,0,0,0,0,0,0,0,0,0,0,0,0,0,0,0,0,0,0,0,0,0,0,0,0,0,0,0,0,
0,1114,1104,1110,1107,0,1108,1098,1108,1109,1094,1107,0,1097,1090,1108,0,1091,1094,1094,1103,0,1109,1090,1100,1094,1103,1071,0,0,0,0,
0,0,0,0,0,0,0,0,0,0,0,0,0,0,0,0,0,0,0,0,0,0,0,0,0,0,0,0,0,0,0,0,
0,1111,1094,1103,1109,1110,1107,1094,0,1098,1103,1109,1104,0,1109,1097,1094,0,1095,1104,1107,1094,1108,1109,1071,0,0,0,0,0,0,0,
0,1095,1098,1103,1093,0,1097,1094,1107,1071,0,1090,1103,1093,0,1096,1094,1109,0,1107,1094,1111,1094,1103,1096,1094,1071,0,0,0,0,0,
0,0,0,0,0,0,0,0,0,0,0,0,0,0,0,0,0,0,0,0,0,0,0,0,0,0,0,0,0,0,0,0,
0,1122,1123,1124,0,0,0,0,0,0,0,0,0,0,0,0,0,0,0,0,0,0,0,0,0,0,0,0,0,0,0,0,
0,1154,1155,1156,0,1102,1104,1111,1094,0,0,0,0,0,0,0,0,0,0,0,0,0,0,0,0,0,0,0,0,0,0,0,
0,1186,1187,1188,0,0,0,0,0,0,0,0,0,0,0,0,0,0,0,0,0,0,0,0,0,0,0,0,0,0,0,0,
0,0,0,0,0,0,0,0,0,0,0,0,0,0,0,0,0,0,0,0,0,0,0,0,0,0,0,0,0,0,0,0,
0,1125,0,1090,1109,1109,1090,1092,1100,0,0,0,0,0,0,0,0,0,0,0,0,0,0,0,0,0,0,0,0,0,0,0,
0,0,0,0,0,0,0,0,0,0,0,0,0,0,0,0,0,0,0,0,0,0,0,0,0,0,0,0,0,0,0,0,
0,1157,1158,0,1093,1104,1093,1096,1094,0,0,0,0,0,0,0,0,0,0,0,0,0,0,0,0,0,0,0,0,0,0,0,
0,0,0,0,0,0,0,0,0,0,0,0,0,0,0,0,0,0,1105,1107,1094,1108,1108,1025,1108,1109,1090,1107,1109,0,0,0,
0,0,0,0,0,0,0,0,0,0,0,0,0,0,0,0,0,0,0,0,0,0,0,0,0,0,0,0,0,0,0,0,
0,0,0,0,0,0,0,0,0,0,0,0,0,0,0,0,0,0,0,0,0,0,0,0,0,0,0,0,0,0,0,0,
0,0,0,0,0,0,0,0,0,0,0,0,0,0,0,0,0,0,0,0,0,0,0,0,0,0,0,0,0,0,0,0,
0,0,0,0,0,0,0,0,0,0,0,0,0,0,0,0,0,0,0,0,0,0,0,0,0,0,0,0,0,0,0,0,
0,0,0,0,0,0,0,0,0,0,0,0,0,0,0,0,0,0,0,0,0,0,0,0,0,0,0,0,0,0,0,0,
0,0,0,0,0,0,0,0,0,0,0,0,0,0,0,0,0,0,0,0,0,0,0,0,0,0,0,0,0,0,0,0,
0,0,0,0,0,0,0,0,0,0,0,0,0,0,0,0,0,0,0,0,0,0,0,0,0,0,0,0,0,0,0,0,
0,0,0,0,0,0,0,0,0,0,0,0,0,0,0,0,0,0,0,0,0,0,0,0,0,0,0,0,0,0,0,0,
0,0,0,0,0,0,0,0,0,0,0,0,0,0,0,0,0,0,0,0,0,0,0,0,0,0,0,0,0,0,0,0,
0,0,0,0,0,0,0,0,0,0,0,0,0,0,0,0,0,0,0,0,0,0,0,0,0,0,0,0,0,0,0,0,
0,0,0,0,0,0,0,0,0,0,0,0,0,0,0,0,0,0,0,0,0,0,0,0,0,0,0,0,0,0,0,0,
0,0,0,0,0,0,0,0,0,0,0,0,0,0,0,0,0,0,0,0,0,0,0,0,0,0,0,0,0,0,0,0,
0,0,0,0,0,0,0,0,0,0,0,0,0,0,0,0,0,0,0,0,0,0,0,0,0,0,0,0,0,0,0,0
</data>
 </layer>
</map>
